!!!!SEGMENT: pl-kk--kk-i-363--003_anonim--pro-festis-tradent-enim-vos.krn
!!!cenid: 17xx:1965
!!!COM: Anonim
!!!COM-rismID: pe30004985
!!!CDT:
!!!CNT:
!!!OPR: Pro festis
!!!OTL: Tradent enim vos
!!!OMV: 003
!!!PDT:
!!!AGN: Sacred
!!!SMS-siglum: PL-Kk
!!!SMS-shelfmark: Kk.I.363
!!!SMS-shelfwork: 001-003 M
!!!SMS-variant:
!!!SMS-altvar:
!!!NIFC-rismSourceID: 1001144503
!!!NIFC-islandoraID: pl-kk:5993
!!!URL-pdf-islandora: https://repozytorium.nifc.pl/islandora/object/pl-kk%3A5993/datastream/PDF/view
!!!URL-scan: https://polish.musicsources.pl/pl/lokalizacje/galeria/rekopisy/5978 @EN{Scan on Polish Music Sources Website} @PL{Skany w portalu Dziedzictwo Muzyki Polskiej w otwartym dostępie}
!!!ONB-nifc: UWAGA: części: 1. Conceptio tua, 2. Sun tuum praesidium, 3. Tradent enim vos
!!!AIN: 1 tenor
!!!key:
**kern	**text
*Itenor	*
*I"Tenore	*
*I'T.	*
*clefC4	*
*k[b-]	*
*g:	*
*M2/1	*
*met(C|)	*
=1-	=1-
!LO:TX:t=P:problem=oznaczenie metryczne alla breve	!
00r	.
=2-	=2-
.	.
=3-	=3-
00r	.
=4-	=4-
.	.
=5-	=5-
0r	.
=6-	=6-
1.D/	Tra-
!LO:TX:t=P:problem=kreska pseudotaktowa	!
2C/	-dent
=7-	=7-
2F/	e-
2G/	-nim
!LO:TX:t=P:global:problem=rozdzielacze słów na różnych liniach	!
!LO:TX:t=P:problem=kreska pseudotaktowa	!
1A\,<	Vos
=8-	=8-
*2\right	*
2B-X\	in
2A\	Con-
2F/	-ci-
2G/	-li-
=9-	=9-
!LO:TX:t=P:problem=kreska pseudotaktowa	!
1D/	-is
2r	.
*	*ij
1G/	Tra-
=10-	=10-
.	.
!LO:TX:t=P:problem=kreska pseudotaktowa	!
2F/	-dent
2B-\	e-
2c\	-nim
=11-	=11-
!LO:TX:t=P:problem=kreska pseudotaktowa	!
1d\,	Vos
2.B-\	in
4A\	.
=12-	=12-
2G/	Con-
2F/	-ci-
1B-\	-li-
=13-	=13-
!LO:TX:t=P:problem=kreska pseudotaktowa	!
1A\	.
!LO:TX:t=P:problem=w źródle 0.D [brak kreski taktowej]	!
0.D/	-is
*	*Xij
=14-	=14-
.	.
=15-	=15-
00r	.
=16-	=16-
.	.
=17-	=17-
!LO:TX:t=P:problem=kreska pseudotaktowa	!
0r	.
!!LO:LB:g=original
=18-	=18-
1.A\	et
2A\	in
=19-	=19-
2B-X\	Sy-
2A/	-na-
2G/	-go-
2F/	-gis
=20-	=20-
*lig	*
!LO:TX:t=P:global:problem=przyjęto c.o.p.	!
1G/	su-
1A\	.
*Xlig	*
=21-	=21-
!LO:TX:t=P:problem=kreska pseudotaktowa	!
1D/,<	-is
2.F/	fla-
4G/	-gel-
=22-	=22-
2A\	-la-
!LO:TX:t=P:problem=kreska pseudotaktowa	!
2A\	-bunt
1B-X\	Vos!
=23-	=23-
!LO:TX:t=P:problem=kreska pseudotaktowa	!
0A\	.
=24-	=24-
!LO:TX:t=P:problem=kreska pseudotaktowa	!
1r	.
2.B-\	fla-
4c\	-gel-
=25-	=25-
2d\	-la-
!LO:TX:t=P:problem=kreska pseudotaktowa	!
2B-\	-bunt
2A,</	Vos,
2D/	et
=26-	=26-
2A\	an-
2A\	-te
1B-X\	Re-
=27-	=27-
2A,</	-ges
!LO:TX:t=P:problem=kreska pseudotaktowa	!
2F/	et
2.G/	(prae)-
4G/	-si-
=28-	=28-
!LO:TX:t=P:problem=kreska pseudotaktowa	!
1D/	-des
!!LO:LB:g=original
1r	.
=29-	=29-
2r	.
!LO:TX:t=P:problem=kreska pseudotaktowa	!
2d\	et
2e-X\	an-
2e-\	-te
=30-	=30-
1d\	Re-
!LO:TX:t=P:problem=kreska pseudotaktowa	!
1G/	-ges
=31-	=31-
2rF	.
*	*ij
2C/	et
2G/	an-
!LO:TX:t=P:problem=kreska pseudotaktowa	!
2G/	-te
=32-	=32-
2C/	Re-
1c\,	-ges
*	*Xij
!LO:TX:t=P:problem=kreska pseudotaktowa	!
2B-X\	et
=33-	=33-
2A/	Prae-
2A/	-si-
!LO:TX:t=P:problem=kreska pseudotaktowa	!
1G/	-des
=34-	=34-
1A\	du-
2.B-\	-ce-
4B-\	-mi-
=35-	=35-
2A,</	-ni
1F/	(pro)-
2G/	-pter
=36-	=36-
!LO:TX:t=P:problem=kreska pseudotaktowa	!
1D/	me
2r	.
2d\	du-
=37-	=37-
2.e-X\	-ce-
4e-\	-mi-
2d,\	-ni
1B-\	p(ro)-
=38-	=38-
.	.
2c\	-pter
!LO:TX:t=P:problem=kreska pseudotaktowa	!
1G/	me
=39-	=39-
!LO:TX:t=P:problem=kreska pseudotaktowa	!
1r	.
!!LO:LB:g=original
2rD	.
2D/	in
=40-	=40-
2En/	Te-
!LO:TX:t=P:problem=kreska pseudotaktowa	!
2F/	-sti-
1.G/	-mo-
=41-	=41-
.	.
2F/	-ni-
!LO:TX:t=P:problem=kreska pseudotaktowa	!
1E/	-um
=42-	=42-
*lig	*
1D/	il-
1A\	.
*Xlig	*
=43-	=43-
!LO:TX:t=P:problem=kreska pseudotaktowa	!
1D/	-lis
2rF	.
2G/	in
=44-	=44-
2A\	Te-
2B-\	-ſti-
!LO:TX:t=P:problem=w źródle 1.c [brak kreski taktowej]	!
1.c\	-mo-
=45-	=45-
.	.
2B-\	-ni-
!LO:TX:t=P:problem=kreska pseudotaktowa	!
1A\	-um
=46-	=46-
1G/	il-
!LO:TX:t=P:problem=kreska pseudotaktowa	!
1D/	-lis
=47-	=47-
1r	.
2r	.
!LO:TX:t=P:problem=kreska pseudotaktowa	!
2G/	in
=48-	=48-
2G/	te-
2F/	-sti-
2.E/	-mo-
4E/	-ni-
=49-	=49-
!LO:TX:t=P:problem=kreska pseudotaktowa	!
1D/	-um
*lig	*
1A\	il-
=50-	=50-
1B-\	.
*Xlig	*
2.A/	-lis
!LO:TX:t=P:problem=kreska pseudotaktowa	!
4G/	.
!!LO:LB:g=original
=51-	=51-
2F/	.
!LO:TX:t=P:problem=kreska pseudotaktowa	!
2G/	et
2.E/	Gen-
4E/	-ti-
=52-	=52-
!LO:TX:t=P:problem=kreska pseudotaktowa	!
1D/	-b(us),
2r	.
2d\	in
=53-	=53-
2d\	Te-
2c\	-sti-
2.B-X\	-mo-
4B-\	-ni-
=54-	=54-
!LO:TX:t=P:problem=kreska pseudotaktowa	!
1A\	-um
1G/	.
=55-	=55-
2.D/	il-
!LO:TX:t=P:problem=kreska pseudotaktowa	!
4E/	.
2F/	-lis
!LO:TX:t=P:problem=kreska pseudotaktowa	!
2G/	et
=56-	=56-
1.D/	Gen-
2D/	-ti-
=57-	=57-
0G/	-bus.
==	==
*-	*-
!!!RDF**kern: > = above
!!!RDF**kern: < = below
!!!EED: Leszek Kubiak
!!!EEV: 2021-02-24
!!!ENC: Andrzej Kubiczek
!!!END: 2021-02-10
!!!YEC: Copyright 2022 Narodowy Instytut Fryderyka Chopina (https://polishscores.org)
!!!YEM: Licence CC BY 4.0 (https://creativecommons.org/licenses/by/4.0)
